X: 26560
T: Mick Carr's
R: strathspey
M: 4/4
K: Dmajor
DE|:F2FD G^FGE|F2FA GECE|F2FA G2FG|1 Add^c d=cAG:|2 Add^c d2ed||
cAAG FGAB|cAAG FDD2|cAAF G2FG|1 Addc d2ed:|2 Addc d=cAG||

